static/img/icons/ico-clock.svg

<svg fill="none" height="100" viewBox="0 0 100 100" width="100" xmlns="http://www.w3.org/2000/svg"><g fill="#65b400"><path d="m50 1c-27.57 0-49 21.43-49 49 0 27.5699 21.43 49 49 49 27.5699 0 49-21.43 49-49s-21.4301-49-49-49zm2.551 93.8239v-5.0278c0-1.4089-1.1421-2.551-2.551-2.551-1.409 0-2.551 1.1421-2.551 2.551v5.0278c-22.7298-1.2796-40.99343-19.5432-42.27301-42.2729h5.02801c1.4089 0 2.551-1.1421 2.551-2.551 0-1.409-1.1421-2.551-2.551-2.551h-5.02801c1.27958-22.7298 19.54321-40.99317 42.27301-42.27276v5.02776c0 1.4089 1.142 2.551 2.551 2.551 1.4089 0 2.551-1.1421 2.551-2.551v-5.02776c22.7297 1.27959 40.9933 19.54296 42.2729 42.27276h-5.028c-1.4089 0-2.551 1.142-2.551 2.551 0 1.4089 1.1421 2.551 2.551 2.551h5.028c-1.2796 22.7297-19.5432 40.9933-42.2729 42.2729z"/><path d="m27.8561 16.7452c.4607.8556 1.3392 1.3413 2.2474 1.3413.4084 0 .823-.0985 1.2077-.3056 1.2405-.6681 1.7043-2.2161 1.0362-3.4564-.6679-1.2403-2.2148-1.7043-3.4556-1.0365-1.2403.6679-1.7046 2.2151-1.0365 3.4557z"/><path d="m14.3245 32.3474.0015.0008c.3847.2071.7985.3053 1.2066.3053.9082 0 1.7873-.4865 2.2482-1.3423.6679-1.2406.2031-2.788-1.0375-3.4559-1.2403-.6676-2.7874-.2038-3.4556 1.0365-.6678 1.2406-.2035 2.7877 1.0368 3.4556z"/><path d="m14.3254 67.653c-1.2403.6679-1.7046 2.2151-1.0365 3.4556.4607.8556 1.34 1.3421 2.2482 1.3421.4084 0 .8224-.0982 1.2071-.3054l.0016-.0007c1.2403-.6679 1.7038-2.2146 1.0359-3.4551-.6676-1.2408-2.2155-1.7043-3.4563-1.0365z"/><path d="m31.3112 82.2193c-1.2403-.6678-2.788-.2028-3.4559 1.0375-.6681 1.2406-.2038 2.7878 1.0365 3.4556.3847.2072.7987.3054 1.2071.3054.9082 0 1.7875-.4865 2.2482-1.3421l.0008-.0015c.6683-1.2406.2038-2.787-1.0367-3.4549z"/><path d="m72.0698 83.1274c-.7385-1.2-2.3089-1.5732-3.5091-.8347-1.2.7385-1.5735 2.3107-.835 3.5104.4819.7829 1.3184 1.2143 2.175 1.2143.4561 0 .9179-.1222 1.3347-.3788 1.2-.7385 1.574-2.3097.8355-3.5097z"/><path d="m85.6747 67.6529-.0016-.0007c-1.2403-.6679-2.7867-.2033-3.4548 1.037-.6679 1.2405-.2031 2.788 1.0375 3.4558.3847.2072.7987.3054 1.2071.3054.9082 0 1.7875-.4865 2.2482-1.3421.6682-1.2403.2039-2.7875-1.0364-3.4554z"/><path d="m83.2561 27.855-.0016.0008c-1.2403.6678-1.7038 2.2145-1.0359 3.4551.4607.8556 1.34 1.3418 2.2487 1.3418.4084 0 .823-.0985 1.2076-.3056 1.2403-.6679 1.7046-2.215 1.0365-3.4556-.6676-1.2401-2.2145-1.7041-3.4553-1.0365z"/><path d="m71.2361 13.3615c-1.2003-.7385-2.7712-.3643-3.5097.8355l-.001.0015c-.7385 1.2-.3638 2.7704.836 3.5089.4168.2564.878.3786 1.3339.3786.8569 0 1.6941-.4319 2.176-1.2151.7388-1.1997.3645-2.7711-.8352-3.5094z"/><path d="m54 53c.4347-.7503 1.1025-2.0733 1.1025-2.9998 0-1.8808-1.5808-3.5255-3.1025-4.4102v-25.1813c0-1.4089-.5906-2.551-1.9995-2.551-1.409 0-2.0005 1.1421-2.0005 2.551v25.1813c-1.5217.8847-3.1016 2.5294-3.1016 4.4102 0 2.8102 2.7914 4.9998 5.6016 4.9998l8.5 15c.4724.8184 1.0902 1.5507 1.9719 1.5507.4326 0 .8714-.1102 1.2732-.3421 1.2201-.7043.9595-1.9885.2549-3.2086z"/></g></svg>

<svg width="100" height="100" viewBox="0 0 100 100" fill="none" xmlns="http://www.w3.org/2000/svg">
<path d="M50 1C22.43 1 1 22.43 1 50C1 77.5699 22.43 99 50 99C77.5699 99 99 77.57 99 50C99 22.43 77.5699 1 50 1ZM52.551 94.8239V89.7961C52.551 88.3872 51.4089 87.2451 50 87.2451C48.591 87.2451 47.449 88.3872 47.449 89.7961V94.8239C24.7192 93.5443 6.45557 75.2807 5.17599 52.551H10.204C11.6129 52.551 12.755 51.4089 12.755 50C12.755 48.591 11.6129 47.449 10.204 47.449H5.17599C6.45557 24.7192 24.7192 6.45583 47.449 5.17624V10.204C47.449 11.6129 48.591 12.755 50 12.755C51.4089 12.755 52.551 11.6129 52.551 10.204V5.17624C75.2807 6.45583 93.5443 24.7192 94.8239 47.449H89.7959C88.387 47.449 87.2449 48.591 87.2449 50C87.2449 51.4089 88.387 52.551 89.7959 52.551H94.8239C93.5443 75.2807 75.2807 93.5443 52.551 94.8239Z" fill="#65B400"/>
<path d="M27.8561 16.7452C28.3168 17.6008 29.1953 18.0865 30.1035 18.0865C30.5119 18.0865 30.9265 17.988 31.3112 17.7809C32.5517 17.1128 33.0155 15.5648 32.3474 14.3245C31.6795 13.0842 30.1326 12.6202 28.8918 13.288C27.6515 13.9559 27.1872 15.5031 27.8553 16.7437L27.8561 16.7452Z" fill="#65B400"/>
<path d="M14.3245 32.3474L14.326 32.3482C14.7107 32.5553 15.1245 32.6535 15.5326 32.6535C16.4408 32.6535 17.3199 32.167 17.7808 31.3112C18.4487 30.0706 17.9839 28.5232 16.7433 27.8553C15.503 27.1877 13.9559 27.6515 13.2877 28.8918C12.6199 30.1324 13.0842 31.6795 14.3245 32.3474Z" fill="#65B400"/>
<path d="M14.3254 67.653C13.0851 68.3209 12.6208 69.8681 13.2889 71.1086C13.7496 71.9642 14.6289 72.4507 15.5371 72.4507C15.9455 72.4507 16.3595 72.3525 16.7442 72.1453L16.7458 72.1446C17.9861 71.4767 18.4496 69.93 17.7817 68.6895C17.1141 67.4487 15.5662 66.9852 14.3254 67.653Z" fill="#65B400"/>
<path d="M31.3112 82.2193C30.0709 81.5515 28.5232 82.0165 27.8553 83.2568C27.1872 84.4974 27.6515 86.0446 28.8918 86.7124C29.2765 86.9196 29.6905 87.0178 30.0989 87.0178C31.0071 87.0178 31.8864 86.5313 32.3471 85.6757L32.3479 85.6742C33.0162 84.4336 32.5517 82.8872 31.3112 82.2193Z" fill="#65B400"/>
<path d="M72.0698 83.1274C71.3313 81.9274 69.7609 81.5542 68.5607 82.2927C67.3607 83.0312 66.9872 84.6034 67.7257 85.8031C68.2076 86.586 69.0441 87.0174 69.9007 87.0174C70.3568 87.0174 70.8186 86.8952 71.2354 86.6386C72.4354 85.9001 72.8094 84.3289 72.0709 83.1289L72.0698 83.1274Z" fill="#65B400"/>
<path d="M85.6747 67.6529L85.6731 67.6522C84.4328 66.9843 82.8864 67.4489 82.2183 68.6892C81.5504 69.9297 82.0152 71.4772 83.2558 72.145C83.6405 72.3522 84.0545 72.4504 84.4629 72.4504C85.3711 72.4504 86.2504 71.9639 86.7111 71.1083C87.3793 69.868 86.915 68.3208 85.6747 67.6529Z" fill="#65B400"/>
<path d="M83.2561 27.855L83.2545 27.8558C82.0142 28.5236 81.5507 30.0703 82.2186 31.3109C82.6793 32.1665 83.5586 32.6527 84.4673 32.6527C84.8757 32.6527 85.2903 32.5542 85.6749 32.3471C86.9152 31.6792 87.3795 30.1321 86.7114 28.8915C86.0438 27.6514 84.4969 27.1874 83.2561 27.855Z" fill="#65B400"/>
<path d="M71.2361 13.3615C70.0358 12.623 68.4649 12.9972 67.7264 14.197L67.7254 14.1985C66.9869 15.3985 67.3616 16.9689 68.5614 17.7074C68.9782 17.9638 69.4394 18.086 69.8953 18.086C70.7522 18.086 71.5894 17.6541 72.0713 16.8709C72.8101 15.6712 72.4358 14.0998 71.2361 13.3615Z" fill="#65B400"/>
<path d="M54 53C54.4347 52.2497 55.1025 50.9267 55.1025 50.0002C55.1025 48.1194 53.5217 46.4747 52 45.59V20.4087C52 18.9998 51.4094 17.8577 50.0005 17.8577C48.5915 17.8577 48 18.9998 48 20.4087V45.59C46.4783 46.4747 44.8984 48.1194 44.8984 50.0002C44.8984 52.8104 47.6898 55 50.5 55L59 70C59.4724 70.8184 60.0902 71.5507 60.9719 71.5507C61.4045 71.5507 61.8433 71.4405 62.2451 71.2086C63.4652 70.5043 63.2046 69.2201 62.5 68L54 53Z" fill="#65B400"/>
</svg>
